X: 122
P: Longways for as many as will
M: 6/4
L: 1/4
K: D
[|\
b>ag (f/g/a)c | dBe c2A | B/c/dB c/d/eA | B/c/dB c/d/eA |
a3 f>gf | gcd eBc | d3 D3 |][| fdd g>ab |\
a(b/a/) (g/f/) g2a | (ge)d BB/c/d | cac Bag | a3 A3 | fdd caa |
ecc Bgg | dBB Aff | Gee Fdd | Edc d2F |\

